!!!OTL: One More River
!!!ARE: United States of America
!!!AGN: Negro Spiritual
!!!AMD: Pentatonic
**kern
*clefG2
*k[b-]
*M6/8
*MM112
!! Solo
{8c/
=1
4f/
8g/
4a/
8c/
=2
4f/
8g/
4a/}
!! Chorus
{8a/
=3
4g/
8g/
8g/L
8a/
8g/J
=4
[4.f/
8f/]}
8r
!! Solo
{8c/
=5
4f/
8g/
4a/
8c/
=6
8f/L
8f/
8g/J
4a/}
!! Chorus
{8a/
=7
4g/
8g/
8g/L
8a/
8g/J
=8
[4.f/
8f/]}
8r
{8a/
=9
4.cc\
4.dd\
=10
8cc\
4a/
4a/}
{8a/
=11
4g/
8g/
8g/L
8f/
8g/J
=12
4.a/
4.cc\}
=13
{4.cc\
4.dd\
=14
8cc\
[4a/
4a/]}
{8a/
=15
4g/
8g/
8g/L
8a/
8g/J
=16
4f/}
4r
==
*-
